packages/foundations/assets/icons/functional/images/arrows/arrow_left_20.svg

<svg width="20" height="20" viewBox="0 0 20 20" fill="none" xmlns="http://www.w3.org/2000/svg">
<g clip-path="url(#clip0_77_473)">
<path fill-rule="evenodd" clip-rule="evenodd" d="M3.31304 9.31304C3.21349 9.39743 3.13381 9.50277 3.07971 9.62153C3.0256 9.74029 2.99839 9.86954 3.00004 10C3.00004 10.25 3.09404 10.5 3.31304 10.719L8.28104 15.719C8.46904 15.906 8.75004 16 9.00004 16C9.56304 16 10 15.562 10 15C10.0007 14.8725 9.97626 14.7461 9.92804 14.6281C9.87983 14.51 9.8088 14.4026 9.71904 14.312L6.40604 11H16C16.563 11 17 10.562 17 10C17 9.46904 16.562 9.00004 16 9.00004H6.40604L9.72004 5.71904C9.90604 5.50004 10 5.25004 10 5.00004C10 4.46904 9.56204 4.00004 9.00004 4.00004C8.76892 3.99796 8.54458 4.07806 8.36704 4.22604L3.31304 9.31304Z" fill="#1A1C1F"/>
</g>
<defs>
<clipPath id="clip0_77_473">
<rect width="20" height="20" fill="white"/>
</clipPath>
</defs>
</svg>

<svg xmlns="http://www.w3.org/2000/svg" width="20" height="20" fill="none"><g clip-path="url(#a)"><path fill="#1A1C1F" fill-rule="evenodd" d="M3.313 9.313A.89.89 0 0 0 3 10c0 .25.094.5.313.719l4.968 5c.188.187.469.281.719.281.563 0 1-.438 1-1a.97.97 0 0 0-.281-.688L6.406 11H16c.563 0 1-.438 1-1 0-.531-.438-1-1-1H6.406L9.72 5.719C9.906 5.5 10 5.25 10 5c0-.531-.438-1-1-1a.98.98 0 0 0-.633.226z" clip-rule="evenodd"/></g><defs><clipPath id="a"><path fill="#fff" d="M0 0h20v20H0z"/></clipPath></defs></svg>
